!!!COM: Scriabin, Alexander
!!!OTL@@FR: Mouvement no 2
!!!OTL@@EN: Movement No. 2
!!!OPR@@FR: Sonate no 2
!!!OPR@@EN: Sonata No. 2
!!!OPS: 23
!!!ONM: 2
!!!ODT: 1897
!!!AGN: Sonata movement
**kern	**kern	**dynam
*staff2	*staff1	*staff1/2
*Ipiano	*Ipiano	*
*clefF4	*clefG2	*
*k[b-e-a-]	*k[b-e-a-]	*
*E-:	*E-:	*
*M4/8	*M4/8	*
16EE-LL 16E-	8r	.
16BBB-J 16BB-	.	.
=1	=1	=1
*	*^	*
8GG 8GJ	2e-	4.B- 4.b-	.
16EE-LL 16E-	.	.	.
16BBB-J 16BB-	.	.	.
8GGJ 8G	.	.	.
16GG-XLL 16G-X	.	8B- 8b-	.
[16EE-J [16E-	.	.	.
=2	=2	=2	=2
8qEE-] 8qE-]	.	.	.
[8C-XJ [8G-X [8c-X	4.e-	8.B-L 8.b-	.
4C-] 4G-] 4c-]	.	.	.
.	.	16G-XJk 16g-X	.
.	.	8G-L 8g-	.
16EE-LL 16E-	8e-	8GnJ 8gn	.
16BBB-J 16BB-	.	.	.
=3	=3	=3	=3
8GGnJ 8Gn	4.e-	4.B- 4.b-	.
16EE-LL 16E-	.	.	.
16BBB-J 16BB-	.	.	.
8GGJ 8G	.	.	.
16GG-XLL 16G-X	8e--	8B- 8b-	.
[16EE--J [16E--	.	.	.
!!LO:LB:g=original
=4	=4	=4	=4
8qEE--] 8qE--]	.	.	.
[8C-XJ [8G-X [8c-X	4.e--	8.B-L 8.b-	.
4C-] 4G-] 4c-]	.	.	.
.	.	16G-XJk 16g-X	.
.	.	8G-L 8g-	.
16DD-XLL 16D-X	8g-	8B-J 8b-	.
16BBB-J 16BB-	.	.	.
=5	=5	=5	=5
8GG-XJ 8G-X	8b-	16.d-XLL 16.dd-X	.
.	.	32e-XJk 32ee-X	.
*	*v	*v	*
16DD-XLL 16D-X	8e-J 8b- 8dd- 8ee-	.
16BBB-J 16BB-	.	.
8BB-J 8B-	8fL 8b- 8dd- 8ff	.
16EE-LL 16E-\	8g-XJ 8b- 8ee- 8gg-X	.
[16BBB-J [16BB-	.	.
=6	=6	=6
8qBBB-] 8qBB-]	.	.
[8G-XJ [8e- [8g-X	8.b-L 8.ee- 8.bb-	.
8G-L] 8e-] 8g-]	.	.
.	16e-Jk 16ee-	.
8G-J 8B- 8g-	8e- 8b- 8ee-	.
16GG-XLL 16G-	8r	.
16AAA-J 16AA-	.	.
=7	=7	=7
[8G-XJ [8c-X [8g-X	8.cc-XL 8.ee- 8.ccc-X	.
8G-L] 8c-] 8g-]	.	.
.	16e-Jk 16ee-	.
8G-J 8c- 8g-	8e- 8cc- 8ee-	.
16FFLL 16F/	8r	.
16BBB-J 16BB-	.	.
!!LO:LB:g=original
=8	=8	=8
8.FJ 8.B- 8.f	8.dnL 8.b- 8.ddn	.
16D 16F 16d	16B-Jk 16f 16b-	.
8D 8F 8d	8B- 8f 8b-	.
16BBB-LL 16BB-	8r	.
16FFFJ 16FF	.	.
*	*clefF4	*
=9	=9	=9
*	*^	*
8DDJ 8D	4.F 4.f	2B-	.
16BBB-LL 16BB-	.	.	.
16FFFJ 16FF	.	.	.
8DDJ 8D	.	.	.
16DD-XLL 16D-X	8F 8f	.	.
[16BBB-J [16BB-	.	.	.
=10	=10	=10	=10
8qBBB-] 8qBB-]	.	.	.
[8GG-XJ [8D-X [8G-X	8.FL 8.f	4.B-	.
4GG-] 4D-] 4G-]	.	.	.
.	16D-XJk 16d-X	.	.
.	8D-L 8d-	.	.
16BBB-LL 16BB-	8DnJ 8dn	8B-	.
16FFFJ 16FF	.	.	.
=11	=11	=11	=11
8DDJ 8D	4.F 4.f	4.B-	.
16BBB-LL 16BB-	.	.	.
16FFFJ 16FF	.	.	.
8DDJ 8D	.	.	.
16DD-XLL 16D-X	8F 8f	8B--	.
[16BBB--J [16BB--	.	.	.
!!LO:LB:g=original
=12	=12	=12	=12
8qBBB--] 8qBB--]	.	.	.
[8GG-XJ [8D-X [8G-X	8.FL 8.f	4.B--	.
4GG-] 4D-] 4G-]	.	.	.
.	16D-XJk 16d-X	.	.
.	8D-L 8d-	.	.
16AAA-LL 16AA-	8FJ 8f	8d-	.
16FFFJ 16FF	.	.	.
*	*clefG2	*	*
=13	=13	=13	=13
8DD-XJ 8D-X	8f	16.A-LL 16.a-	.
.	.	32B-XJk 32b-X	.
*	*v	*v	*
16AAA-LL 16AA-	8B-J 8f 8a- 8b-	.
16FFFJ 16FF	.	.
8FFJ 8F	8cL 8f 8a- 8cc	.
16BBB-LL 16BB-	8d-XJ 8f 8b- 8dd-X	.
16FFFJ 16FF	.	.
=14	=14	=14
[8D-XJ [8B- [8d-X	8.fL 8.b- 8.ff	.
8D-L] 8B-] 8d-]	.	.
.	16B-Jk 16b-	.
8D-J 8F 8d-	8B- 8f 8b-	.
16BBB-LL 16BB-	8r	.
16EEE-J 16EE-	.	.
=15	=15	=15
[8D-XJ [8G-X [8d-X	8.g-XL 8.b- 8.gg-X	.
8D-L] 8G-] 8d-]	.	.
.	16B-Jk 16b-	.
8D-J 8G- 8d-	8B- 8g- 8b-	.
16BBB-LL 16BB-	8r	.
16BBBB-J 16BBB-	.	.
!!LO:LB:g=original
=16	=16	=16
[8DnJ [8B- [8dn	8.fL 8.b- 8.ff	.
8DL] 8B-] 8d]	.	.
.	16B-Jk 16b-	.
8DJ 8B- 8d	8B- 8f 8b-	.
8r	16fLL	.
.	16FJJ	.
=17	=17	=17
16.FFFLL 16.FF	4r	.
32GGGJk 32GG	.	.
8GGGJ 8GG	.	.
8AAAnL 8AAn	8r	.
*	*clefF4	*
8BBB-J 8BB-	16FLL	.
.	16FFJJ	.
*	*clefG2	*
=18	=18	=18
*	*^	*
4.DD-X 4.D-X	8B-L	16.FLL 16.f	.
.	.	32GJk 32g	.
.	8fJ	8GJ 8g	.
*	*v	*v	*
.	8AnL 8f 8an	.
16GLL	8B-J 8f 8b-	.
16D-JJ	.	.
=19	=19	=19
*	*^	*
8r	4f	8.d-XL 8.dd-X	.
8CC 8C	.	.	.
.	.	16FJk 16f	.
8AA-XL 8A-X	4d-	4F 4f	.
8GGJ 8G	.	.	.
*	*v	*v	*
=20	=20	=20
8FF#XL 8F#X	8.cL 8.en 8.cc	.
8GGJ 8G	.	.
.	16EnJk 16e	.
8CC 8C	8E 8c 8e	.
8r	16ccLL	.
.	16cJJ	.
!!LO:LB:g=original
=21	=21	=21
16.CCLL 16.C	4r	.
32DDJk 32D	.	.
8DDJ 8D	.	.
8EEnL 8En	8r	.
*	*clefF4	*
8FFnJ 8Fn	16cLL	.
.	16CJJ	.
*	*clefG2	*
=22	=22	=22
*	*^	*
4.AA- 4.A-	8fL	16.cLL 16.cc	.
.	.	32dJk 32dd	.
.	8ccJ	8dJ 8dd	.
*	*v	*v	*
.	8enL 8cc 8een/	.
16dLL	8fJ 8cc 8ff	.
16A-JJ	.	.
=23	=23	=23
8r	8.a-L 8.cc 8.aa-/	.
8GG 8G	.	.
.	16cJk 16cc	.
8E-XL 8e-X	4c 4a- 4cc	.
8DJ 8d	.	.
=24	=24	=24
8C#X 8c#X	8.gL 8.bn 8.gg	.
4D 4d	.	.
.	16BnJk 16b	.
.	8BL 8g 8b	.
8D-X 8d-X	8e-J 8g 8ee-	.
=25	=25	=25
*	*^	*
8CL 8c	8a-L 8ee-	16.e-LL 16.ee-	.
.	.	32fJk 32ff	.
8AA-J 8A-	8ccJ 8ee-	8fJ 8ff	.
*	*v	*v	*
8EE-L 8E-	8gL 8cc 8ee- 8gg	.
8CCJ 8C	8a-J 8cc 8ff 8aa-	.
!!LO:LB:g=original
=26	=26	=26
*	*^	*
8r	8.ee-L 8.eee-	4aa-	.
8CC 8C	.	.	.
.	16a-Jk 16aa-	.	.
8E-L 8A- 8e-/	4a- 4aa-	4ee-	.
8CCJ 8C	.	.	.
=27	=27	=27	=27
8CL 8c	8a-L 8ee-	16.e-LL 16.ee-	.
.	.	32fJk 32ff	.
8AA-J 8A-	8ccJ 8ee-	8fJ 8ff	.
*	*v	*v	*
8EE-L 8E-	8gL 8cc 8ee- 8gg	.
8CCJ 8C	8a-J 8cc 8ff 8aa-	.
=28	=28	=28
*	*^	*
8r	8.ff-XL 8.fff-X	4aa-	.
8CC 8C	.	.	.
.	16a-Jk 16aa-	.	.
8DL 8A- 8d	4a- 4aa-	4dd	.
8BBBnJ 8BBn	.	.	.
=29	=29	=29	=29
8r	8.ffnL 8.fffn	4aa-	.
8CC 8C	.	.	.
.	16a-Jk 16aa-	.	.
8DL 8A- 8d	4a- 4aa-	4dd	.
8CC-XJ 8C-X	.	.	.
=30	=30	=30	=30
8r	8.cc-XL 8.ccc-X	4dd	.
8BBB- 8BB-	.	.	.
.	16b-Jk 16bb-	.	.
8F 8A- 8d 8f	4b- 4bb-	4dd	.
16EE-LL 16E-	.	.	.
16BBB-J 16BB-	.	.	.
!!LO:LB:g=original
=31	=31	=31	=31
8GGJ 8G	2e-	4.B- 4.b-	.
16EE-LL 16E-	.	.	.
16BBB-J 16BB-	.	.	.
8GGJ 8G	.	.	.
16GG-XLL 16G-X	.	8B- 8b-	.
[16EE-J [16E-	.	.	.
=32	=32	=32	=32
8qEE-] 8qE-]	.	.	.
[8C-XJ [8G-X [8c-X	4.e-	8.B-L 8.b-	.
4C-] 4G-] 4c-]	.	.	.
.	.	16G-XJk 16g-X	.
.	.	8G-L 8g-	.
16EE-LL 16E-	8e-	8GnJ 8gn	.
16BBB-J 16BB-	.	.	.
=33	=33	=33	=33
8GGnJ 8Gn	4.e-	4.B- 4.b-	.
16EE-LL 16E-	.	.	.
16BBB-J 16BB-	.	.	.
8GGJ 8G	.	.	.
16GG-XLL 16G-X	8e--	8B- 8b-	.
[16EE--J [16E--	.	.	.
=34	=34	=34	=34
8qEE--] 8qE--]	.	.	.
[8C-XJ [8G-X [8c-X	4.e--	8.B-L 8.b-	.
4C-] 4G-] 4c-]	.	.	.
.	.	16G-XJk 16g-X	.
.	.	8G-L 8g-	.
16DD-XLL 16D-X	8g-	8B-J 8b-	.
16BBB-J 16BB-	.	.	.
=35	=35	=35	=35
8GG-XJ 8G-X	8b-	16.d-XLL 16.dd-X	.
.	.	32e-XJk 32ee-X	.
*	*v	*v	*
16DD-XLL 16D-X	8e-J 8b- 8dd- 8ee-	.
16BBB-J 16BB-	.	.
8BB-J 8B-	8fL 8b- 8dd- 8ff	.
16EE-LL 16E-	8g-XJ 8b- 8ee- 8gg-X	.
16BBB-J 16BB-	.	.
!!LO:LB:g=original
=36	=36	=36
*	*^	*
[8G-XJ [8e- [8g-X	8.b-L 8.bb-	4ee-	.
8G-L] 8e-] 8g-]	.	.	.
.	16e-Jk 16ee-	.	.
8G-J 8B- 8g-	4e- 4ee-	4b-	.
16EE-LL 16E-	.	.	.
16BBB-J 16BB-	.	.	.
=37	=37	=37	=37
[8G-XJ [8e- [8g-X	8.cc-XL 8.ccc-X	4ee-	.
8G-L] 8e-] 8g-]	.	.	.
.	16e-Jk 16ee-	.	.
*	*v	*v	*
8G-J 8c-X 8g-	4e- 4cc- 4ee-	.
16EE-LL 16E-\	.	.
16AAAnJ 16AAn	.	.
=38	=38	=38
*	*^	*
[8G-XJ [8e- [8g-X	8.cc-XL 8.ccc-X	4ee-	.
8G-L] 8e-] 8g-]	.	.	.
.	16e-Jk 16ee-	.	.
*	*v	*v	*
8G-J 8c-X 8g-	4e- 4cc- 4ee-	.
16EE-LL 16E-	.	.
16AAA-XJ 16AA-X	.	.
=39	=39	=39
*	*^	*
8EE-J 8E-	8e-L	16.c-XLL 16.cc-X	.
.	.	32G-XJk 32g-X	.
16AA-LL 16A-	8c-J	8G-J 8g-	.
16EE-J 16E-	.	.	.
8AA-J 8A-	8fL	16.c-LL 16.cc-	.
.	.	32FJk 32f	.
16DD-XLL 16D-X	8c-J	8FJ 8f	.
16AAA-J 16AA-	.	.	.
!!LO:LB:g=original
=40	=40	=40	=40
8DD-XJ 8D-X	8fL	16.B-LL 16.b-	.
.	.	32FJk 32f	.
16GG-XLL 16G-X	8B-J	8FJ 8f	.
16DD-J 16D-	.	.	.
8GG-J 8G-	8e-L	16.B-LL 16.b-	.
.	.	32E-Jk 32e-	.
16CC-XLL 16C-X	8B-J	8E-J 8e-	.
16GGG-XJ 16GG-	.	.	.
=41	=41	=41	=41
8CC-XJ 8C-X	8e-L	16.A-LL 16.a-	.
.	.	32E-Jk 32e-	.
16FFLL 16F	8A-J	8E-J 8e-	.
16CC-J 16C-	.	.	.
8FF#XJ 8F#X	8e-L	16.AnLL 16.an	.
.	.	32E-Jk 32e-	.
16FF#LL 16F#	8AJ	8E-J 8e-	.
16BBB-J 16BB-	.	.	.
=42	=42	=42	=42
[8GGJ [8G	8e-	16.B-LL 16.b-	.
.	.	32B-Jk	.
16GGLL] 16G]	8r	8B-J	.
16BBB-J 16BB-	.	.	.
8FFnJ 8Fn	8d	16.B-LL 16.b-	.
.	.	32B-Jk	.
16BBB-LL 16BB-	8r	8B-J	.
16EEE-J 16EE-	.	.	.
=43	=43	=43	=43
8GGJ 8G	2e-	4.B- 4.b-	.
16BBB-LL 16BB-	.	.	.
16EEE-J 16EE-	.	.	.
8GGJ 8G	.	.	.
16GG-XLL 16G-X	.	8B- 8b-	.
[16EE-J [16E-	.	.	.
=44	=44	=44	=44
8qEE-] 8qE-]	.	.	.
[8C-XJ [8G-X [8c-X	4.e-	8.B-L 8.b-	.
4C-] 4G-] 4c-]	.	.	.
.	.	16G-XJk 16g-X	.
.	.	8G-L 8g-	.
16BBB-LL 16BB-	8e-	8GnJ 8gn	.
16EEE-J 16EE-	.	.	.
!!LO:LB:g=original
=45	=45	=45	=45
8GGnJ 8Gn	4.e-	4.B- 4.b-	.
16BBB-LL 16BB-	.	.	.
16EEE-J 16EE-	.	.	.
8GGJ 8G	.	.	.
16GG-XLL 16G-X	8e-	8B- 8b-	.
[16EE-J [16E-	.	.	.
=46	=46	=46	=46
8qEE-] 8qE-]	.	.	.
[8C-XJ [8G-X [8c-X	4.e-	8.b-L	.
4C-] 4G-] 4c-]	.	.	.
.	.	16g-XJk	.
.	.	8g-L	.
*^	*	*	*
[8BB-	16BB-LL	8r	8gnJ	.
.	[16EE-JJ	.	.	.
*v	*v	*	*	*
=47	=47	=47	=47
4.EE-] 4.BB-] 4.G	2B-	8.b-L	.
.	.	16e-Jk	.
.	.	4e-	.
*^	*	*	*
[8BB-	16BB-LL	.	.	.
.	[16EE-JJ	.	.	.
*v	*v	*	*	*
=48	=48	=48	=48
4.EE-] 4.BB-] 4.G	2B-	8.b-L	.
.	.	16e-Jk	.
.	.	4e-	.
*^	*	*	*
[8BB-	16BB-LL	.	.	.
.	[16EE-JJ	.	.	.
*v	*v	*	*	*
=49	=49	=49	=49
4.EE-] 4.BB-] 4.F	2A-	8.b-L	.
.	.	16dJk	.
.	.	4d	.
*^	*	*	*
[8BB-	16BB-LL	.	.	.
.	[16EE-JJ	.	.	.
*v	*v	*	*	*
=50	=50	=50	=50
4.EE-] 4.BB-] 4.A-	4.d	8.b-L	.
.	.	16fJk	.
.	.	8f	.
*	*v	*v	*
16B-LL	8d-X 8g	.
16E-JJ	.	.
!!LO:LB:g=original
=51||	=51||	=51||
*k[b-e-a-d-]	*k[b-e-a-d-]	*
*	*^	*
*	*	*^	*
8fL	8a-\L	8.r	4ee-	.
24e-L	8gJ	.	.	.
24f	.	.	.	.
.	.	16cc	.	.
24e-JJ	.	.	.	.
8d-L	[4a-\	8.b-L	[4ff	.
8cJ	.	.	.	.
.	.	16ccJk	.	.
=52	=52	=52	=52	=52
8B-L	4a-\]	8ccL	4ff]	.
8f	.	8dd-J	.	.
*	*	*v	*v	*
*	*v	*v	*
8b-J	8r	.
*clefG2	*	*
24d-LL	[8b-L 8ff 8aa-	.
24e-	.	.
24d-J	.	.
=53	=53	=53
8e-J	8b-J] 8ee- 8gg	.
*	*^	*
8gL	24b-LL	8ee-L	.
.	24cc	.	.
.	24b-J	.	.
8a-J	8ccJ	8ccJ	.
8fL	8a-L	24dd-LL	.
.	.	24ee-	.
.	.	24dd-J	.
=54	=54	=54	=54
8e-J	8gJ	8b-J	.
*^	*	*	*
*clefF4	*clefF4	*	*	*
8FL	4B-	8a-L	8dd-L	.
8E-J	.	8gJ	8b-J	.
*v	*v	*	*	*
16B-LL	8d- 8g	8r	.
16E-JJ	.	.	.
!!LO:LB:g=original
=55	=55	=55	=55
*	*	*^	*
8fL	8a-\L	8.r	4ee-	.
24e-L	8gJ	.	.	.
24f	.	.	.	.
.	.	16cc	.	.
24e-JJ	.	.	.	.
8d-L	[4a-\	8.b-L	[4ff	.
8cJ	.	.	.	.
.	.	16ccJk	.	.
=56	=56	=56	=56	=56
8B-L	4a-\]	8ccL	4ff]	.
8f	.	8dd-J	.	.
*	*	*v	*v	*
*	*v	*v	*
8b-J	8r	.
24B-LL	8a-L 8dd- 8ff	.
24c	.	.
24B-J	.	.
=57	=57	=57
8cJ	8gJ 8cc 8ee-	.
24e-LL	8gL 8cc	.
24f	.	.
24e-J	.	.
8fJ	8a-J	.
*	*^	*
8d-L	8fL	24b-LL	.
.	.	24cc	.
.	.	24b-J	.
=58	=58	=58	=58
8cJ	8enJ	8gJ	.
*^	*	*	*
8D-L	4G	8fL	8b-L	.
8CJ	.	8eJ	8gJ	.
*v	*v	*	*	*
16GLL	8B- 8e	8r	.
16CJJ	.	.	.
!!LO:LB:g=original
=59	=59	=59	=59
*	*	*^	*
8d-L	8f\L	8r	4cc	.
24cL	8enJ	24a-LL	.	.
24d-	.	24b-	.	.
24cJJ	.	24a-JJ	.	.
8cL	8.e\L	8.a-L	4dd-	.
8B-J	.	.	.	.
.	16eJk	16gJk	.	.
=60	=60	=60	=60	=60
8B-L	4f\	8ddL	4ddn	.
8A-	.	8ccJ	.	.
8GJ	8en\	8b-	4een	.
16cLL	8ryy	8e-X 8an	.	.
16FJJ	.	.	.	.
=61	=61	=61	=61	=61
8g-XL	8b-\L	8r	4ff	.
24fL	8anJ	24dd-XLL	.	.
24g-	.	24ee-	.	.
24fJJ	.	24dd-JJ	.	.
8fL	8.a\L	8.dd-L	4gg-X	.
8e-J	.	.	.	.
.	16aJk	16ccJk	.	.
=62	=62	=62	=62	=62
8e-L	4b-\	8ggL	4ggn	.
24d-L	.	24ffL	.	.
24e-	.	24gg	.	.
24d-J	.	24ffJJ	.	.
*	*	*v	*v	*
8cJ	8an 8ee-	4aan	.
8c	8a 8ee-	.	.
!!LO:LB:g=original
=63	=63	=63	=63
*^	*	*	*
8cL	4f	4an 4ee-	8.aanL	.
8c-XJ	.	.	.	.
.	.	.	16ffJk	.
*	*	*	*^	*
8c-L	4f	8a\L	4ee-	4ff	.
8B-J	.	8a-XJ	.	.	.
=64	=64	=64	=64	=64	=64
2B-	8fL	2a-\	8ee-L	4bb-	.
.	8fJ	.	24ee-L	.	.
.	.	.	24ff	.	.
.	.	.	24ee-JJ	.	.
.	8b-L	.	4ddn	4ff	.
.	8B-J	.	.	.	.
*	*	*	*v	*v	*
=65	=65	=65	=65	=65
8B-L	4e-	4g 4dd-X	8.ggL	.
8B--J	.	.	.	.
.	.	.	16ee-Jk	.
*	*	*	*^	*
8B--L	4e-	8g\L	4dd-	4ee-	.
8A-J	.	8g-XJ	.	.	.
=66	=66	=66	=66	=66	=66
2A-	8e-L	2g-X\	8dd-L	4aa-	.
.	8e-J	.	24dd-L	.	.
.	.	.	24ee-	.	.
.	.	.	24dd-JJ	.	.
.	8a-	.	8cc	8ee-	.
.	8d-	.	8a- 8dd-	8ff	.
*	*	*	*v	*v	*
*v	*v	*	*	*
=67	=67	=67	=67
8d-L	8a-L 8dd-	8.ffL	.
24cL	8fJ 8a-	.	.
24d-	.	.	.
.	.	16dd-Jk	.
24cJJ	.	.	.
8B-L	8fL 8a-	8dd-L	.
8cJ	8e-J 8g	8ee-J	.
!!LO:LB:g=original
=68	=68	=68	=68
8cL	8gL	8.ee-L	.
8fJ	8a-J	.	.
.	.	16ccJk	.
8fL	8a-L	8ccL	.
8d-J	8a-J 8dd-	8ffJ	.
=69	=69	=69	=69
8d-L	8a-L 8dd-	8.ffL	.
24cL	8fJ 8a-	.	.
24d-	.	.	.
.	.	16dd-Jk	.
24cJJ	.	.	.
8B-L	8fL 8a-	8dd-L	.
8cJ	8e-J 8g	8ee-J	.
=70	=70	=70	=70
8cL	8gL	8.ee-L	.
8fJ	8a-J	.	.
.	.	16ccJk	.
8fL	8a-L	8ccL	.
8cJ	8gJ	8ee-J	.
*	*v	*v	*
=71	=71	=71
8cL	8gL 8ee-	.
8fJ	8a-J 8cc	.
8fL	8a-L 8cc	.
8B-J	8fJ 8a- 8dd-	.
=72	=72	=72
8B-L	8fL 8a- 8dd-	.
8e-J	8gJ 8b-	.
8e-	8g 8b-	.
*	*^	*
16B-LL	8d- 8g	8r	.
16E-JJ	.	.	.
!!LO:LB:g=original
=73	=73	=73	=73
*	*	*^	*
8fL	8a-\L	8.r	4ee-	.
24e-L	8gJ	.	.	.
24f	.	.	.	.
.	.	16cc	.	.
24e-JJ	.	.	.	.
8d-L	[4a-\	8.b-L	[4ff	.
8cJ	.	.	.	.
.	.	16ccJk	.	.
=74	=74	=74	=74	=74
8B-L	4a-\]	8ccL	4ff]	.
8f	.	8dd-J	.	.
*	*	*v	*v	*
*	*v	*v	*
8b-J	8r	.
*clefG2	*	*
24d-LL	[8b-L 8ff 8aa-	.
24e-	.	.
24d-J	.	.
=75	=75	=75
8e-JH	8b-J] 8ee- 8gg	.
*	*^	*
8gL	24b-LL	8ee-L	.
.	24cc	.	.
.	24b-J	.	.
8a-J	8ccJ	8ccJ	.
8fL	8a-L	24dd-LL	.
.	.	24ee-	.
.	.	24dd-J	.
=76	=76	=76	=76
8e-J	8gJ	8b-J	.
*^	*	*	*
*clefF4	*clefF4	*	*	*
8FL	4B-	8a-L	8dd-L	.
8E-J	.	8gJ	8b-J	.
*v	*v	*	*	*
16e-LL	8g-X 8cc	8r	.
16A-JJ	.	.	.
*	*v	*v	*
*clefG2	*	*
!!LO:LB:g=original
=77	=77	=77
*	*^	*
*	*	*^	*
8b-L	8dd-\L	8.r	4aa-	.
24a-L	8ccJ	.	.	.
24b-	.	.	.	.
.	.	16ff	.	.
24a-JJ	.	.	.	.
8g-XL	[4dd-\	8.ee-L	[4bb-	.
8fJ	.	.	.	.
.	.	16ffJk	.	.
=78	=78	=78	=78	=78
8e-L	4dd-\]	8ffL	4bb-]	.
8b-J	.	8gg-XJ	.	.
*	*	*v	*v	*
*	*v	*v	*
8ee-	8r	.
24e-LL	8dd-L 8gg- 8bb-	.
24f	.	.
24e-J	.	.
=79	=79	=79
8fJ	8ccJ 8ff 8aa-	.
24a-LL	8ccL 8ff	.
24b-	.	.
24a-J	.	.
8b-J	8dd-J	.
24d-LL	8b-L 8ff 8aa-	.
24e-	.	.
24d-J	.	.
=80	=80	=80
8e-J	8b-J 8ee- 8gg-X	.
24g-XLL	8b-L 8ee-	.
24a-	.	.
24g-J	.	.
8a-J	8ccJ	.
24cLL	8a- 8ee- 8gg-	.
24d-	.	.
24cJ	.	.
!!LO:LB:g=original
=81	=81	=81
8d-J	8a-L 8dd- 8ff	.
24c-XLL	8a-J 8ee- 8ff	.
24d-	.	.
24c-J	.	.
8fJ	8a-L 8ee- 8ff	.
24B-LL	8a-J 8ee- 8bb-	.
24cn	.	.
24B-JJ	.	.
=82	=82	=82
8fL	8a- 8ddn 8bb-	.
*clefF4	*	*
24FL	4dn 4a- 4b-	.
24G	.	.
24FJJ	.	.
8BB-	.	.
16EE-LL 16E-	8r	.
16BBB-J 16BB-	.	.
=83||	=83||	=83||
*k[b-e-a-]	*k[b-e-a-]	*
*	*^	*
8GGJ 8G	2e-	4.B- 4.b-	.
16EE-LL 16E-	.	.	.
16BBB-J 16BB-	.	.	.
8GGJ 8G	.	.	.
16GG-XLL 16G-X	.	8B- 8b-	.
[16EE-J [16E-	.	.	.
=84	=84	=84	=84
8qEE-] 8qE-]	.	.	.
[8C-XJ [8G-X [8c-X	4.e-	8.B-L 8.b-	.
4C-] 4G-] 4c-]	.	.	.
.	.	16G-XJk 16g-X	.
.	.	8G-L 8g-	.
16EE-LL 16E-	8e-	8GnJ 8gn	.
16BBB-J 16BB-	.	.	.
!!LO:LB:g=original
=85	=85	=85	=85
8GGnJ 8Gn	4.e-	4.B- 4.b-	.
16EE-LL 16E-	.	.	.
16BBB-J 16BB-	.	.	.
8GGJ 8G	.	.	.
16GG-XLL 16G-X	8e--	8B- 8b-	.
[16EE--J [16E--	.	.	.
=86	=86	=86	=86
8qEE--] 8qE--]	.	.	.
[8C-XJ [8G-X [8c-X	4.e--	8.B-L 8.b-	.
4C-] 4G-] 4c-]	.	.	.
.	.	16G-XJk 16g-X	.
.	.	8G-L 8g-	.
16DD-XLL 16D-X	8g-	8B-J 8b-	.
16BBB-J 16BB-	.	.	.
=87	=87	=87	=87
8GG-XJ 8G-X	8b-	16.d-XLL 16.dd-X	.
.	.	32e-XJk 32ee-X	.
*	*v	*v	*
16DD-XLL 16D-X	8e-J 8b- 8dd- 8ee-	.
16BBB-J 16BB-	.	.
8BB-J 8B-	8fL 8b- 8dd- 8ff	.
16EE-LL 16E-	8g-XJ 8b- 8ee- 8gg-X	.
16BBB-J 16BB-	.	.
=88	=88	=88
*	*^	*
[8G-XJ [8e- [8g-X	8.b-L 8.bb-	4ee-	.
8G-L] 8e-] 8g-]	.	.	.
.	16e-Jk 16ee-	.	.
8G-J 8B- 8g-	4e- 4ee-	4b-	.
16EE-LL 16E-	.	.	.
16BBB-J 16BB-	.	.	.
!!LO:LB:g=original
=89	=89	=89	=89
[8G-XJ [8e- [8g-X	8.cc-XL 8.ccc-X	4ee-	.
8G-L] 8e-] 8g-]	.	.	.
.	16e-Jk 16ee-	.	.
*	*v	*v	*
8G-J 8c-X 8g-	4e- 4cc- 4ee-	.
16EE-LL 16E-\	.	.
16AAAnJ 16AAn	.	.
=90	=90	=90
*	*^	*
[8G-XJ [8e- [8g-X	8.cc-XL 8.ccc-X	4ee-	.
8G-L] 8e-] 8g-]	.	.	.
.	16e-Jk 16ee-	.	.
*	*v	*v	*
8G-J 8c-X 8g-	4e- 4cc- 4ee-	.
16EE-LL 16E-	.	.
16AAA-XJ 16AA-X	.	.
=91	=91	=91
*	*^	*
8EE-J 8E-	8e-L	16.c-XLL 16.cc-X	.
.	.	32G-XJk 32g-X	.
16AA-LL 16A-	8c-J	8G-J 8g-	.
16EE-J 16E-	.	.	.
8AA-J 8A-	8fL	16.c-LL 16.cc-	.
.	.	32FJk 32f	.
16DD-XLL 16D-X	8c-J	8FJ 8f	.
16AAA-J 16AA-	.	.	.
=92	=92	=92	=92
8DD-XJ 8D-X	8fL	16.B-LL 16.b-	.
.	.	32FJk 32f	.
16GG-XLL 16G-X	8B-J	8FJ 8f	.
16DD-J 16D-	.	.	.
8GG-J 8G-	8e-L	16.B-LL 16.b-	.
.	.	32E-Jk 32e-	.
16CC-XLL 16C-X	8B-J	8E-J 8e-	.
16GGG-XJ 16GG-	.	.	.
!!LO:LB:g=original
=93	=93	=93	=93
8CC-XJ 8C-X	8e-L	16.A-LL 16.a-	.
.	.	32E-Jk 32e-	.
16FFLL 16F	8A-J	8E-J 8e-	.
16CC-J 16C-	.	.	.
8FF#XJ 8F#X	8e-L	16.AnLL 16.an	.
.	.	32E-Jk 32G 32e-	.
16FF#LL 16F#	8AJ	8E-J 8e-	.
16BBB-J 16BB-	.	.	.
=94	=94	=94	=94
[8GGJ [8G	8e-	16.B-LL 16.b-	.
.	.	32B-Jk	.
16GGLL] 16G]	8r	8B-J	.
16BBB-J 16BB-	.	.	.
8FFnJ 8Fn	8d	16.B-LL 16.b-	.
.	.	32B-Jk	.
16BBB-LL 16BB-	8r	8B-J	.
16EEE-J 16EE-	.	.	.
=95	=95	=95	=95
8GGJ 8G	2e-	4.B- 4.b-	.
16BBB-LL 16BB-	.	.	.
16EEE-J 16EE-	.	.	.
8GGJ 8G	.	.	.
16GG-XLL 16G-X	.	8B- 8b-	.
16EE-J 16E-	.	.	.
=96	=96	=96	=96
[8C-XJ [8G-X [8c-X	4.e-	8.B-L 8.b-	.
4C-] 4G-] 4c-]	.	.	.
.	.	16G-XJk 16g-X	.
.	.	8G-L 8g-	.
16BBB-LL 16BB-	8e-	8GnJ 8gn	.
16EEE-J 16EE-	.	.	.
!!LO:LB:g=original
=97	=97	=97	=97
8GGnJ 8Gn	4.e-	4.B- 4.b-	.
16BBB-LL 16BB-	.	.	.
16EEE-J 16EE-	.	.	.
8GGJ 8G	.	.	.
16GG-XLL 16G-X/	8e-	8B- 8b-	.
16EE-J 16E-	.	.	.
=98	=98	=98	=98
[8C-XJ [8G-X [8c-X	2e-	8.B-L 8.b-	.
4C-] 4G-] 4c-]	.	.	.
.	.	16G-XJk 16g-X	.
.	.	8G-L 8g-	.
16GG-XLL 16G-/	.	8B-J 8b-	.
16EE-J 16E-	.	.	.
=99	=99	=99	=99
[8C-XJ [8G-X [8c-X	2e-	8.B-L 8.b-	.
4C-] 4G-] 4c-]	.	.	.
.	.	16G-XJk 16g-X	.
.	.	8G-L 8g-	.
16BB-LL 16B-	.	8GnJ 8gn	.
[16EEE-JJ [16EE-	.	.	.
*	*v	*v	*
=100	=100	=100
8qEEE-] 8qEE-]	.	.
2G 2B- 2g	2e- 2b- 2ee-	.
==	==	==
*-	*-	*-
!!!system-decoration: {(*)}
!!!filter: flipper -a
!!!ENC: Bryan Jacob Bell
!!!END: November 2021 to April 2022
!!!PED: Günter Philipp
!!!PTL: Ausgewählte Klavierwerke (Edition Peters)
